X:1
T:Calum's Road
C: Donald Shaw
S:Various sessions
Z:Nigel Gatherer
M:4/4
L:1/8
F:http://www.nigelgatherer.com/tunes/abc/abc1/calums.abc 2005-03-15 18:54:30 UT
K:D
A2 | F<AA>F A4|Bc B>AF>A|B2 d>E F2 E>D|B,F E4||
D<AA>F A4|Bc B>AF>A|B2 d>E F2 E>D|B,E D2:|
F>A|B2 d>c B4|A>BA<E F4|B2 d>c B2 A>B|d2 d>e (3fed (3dBA||
B2 d>c B4|A>BA<E F2 A2|B2 d>E F2 E>D|B,E D2:|
%%%%%
